resources/svg/solid/diagram-predecessor.svg

<svg fill="currentColor" xmlns="http://www.w3.org/2000/svg" viewBox="0 0 512 512"><!--! Font Awesome Free 6.2.0 by @fontawesome - https://fontawesome.com License - https://fontawesome.com/license/free (Icons: CC BY 4.0, Fonts: SIL OFL 1.1, Code: MIT License) Copyright 2022 Fonticons, Inc. --><path d="M448 416l0-64L64 352l0 64 384 0zm0 64L64 480c-35.3 0-64-28.7-64-64l0-64c0-35.3 28.7-64 64-64l384 0c35.3 0 64 28.7 64 64l0 64c0 35.3-28.7 64-64 64zM288 160c0 35.3-28.7 64-64 64L64 224c-35.3 0-64-28.7-64-64L0 96C0 60.7 28.7 32 64 32l144 0 16 0 144 0c44.2 0 80 35.8 80 80l0 16 38.1 0c21.4 0 32.1 25.9 17 41L433 239c-9.4 9.4-24.6 9.4-33.9 0L329 169c-15.1-15.1-4.4-41 17-41l38.1 0 0-16c0-8.8-7.2-16-16-16l-80 0 0 64z"/></svg>

<svg fill="currentColor" xmlns="http://www.w3.org/2000/svg" viewBox="0 0 512 512"><!--! Font Awesome Free 6.1.2 by @fontawesome - https://fontawesome.com License - https://fontawesome.com/license/free (Icons: CC BY 4.0, Fonts: SIL OFL 1.1, Code: MIT License) Copyright 2022 Fonticons, Inc. --><path d="M64 480C28.65 480 0 451.3 0 416V352C0 316.7 28.65 288 64 288H448C483.3 288 512 316.7 512 352V416C512 451.3 483.3 480 448 480H64zM448 416V352H64V416H448zM288 160C288 195.3 259.3 224 224 224H64C28.65 224 0 195.3 0 160V96C0 60.65 28.65 32 64 32H368C412.2 32 448 67.82 448 112V128H486.1C507.4 128 518.1 153.9 503 168.1L432.1 239C423.6 248.4 408.4 248.4 399 239L328.1 168.1C313.9 153.9 324.6 128 345.9 128H384V112C384 103.2 376.8 96 368 96H288V160z"/></svg>
